X: 134
T: Far away
T: Wild Asparagus
T: Up Down And Around
M: 3/4
L: 1/8
R: waltz
K: Bmin
FA |B2 BA Bd |cA F2 FA |B2 BA Be |c4 dc |
B3A Bd |cA F2 de |fe dc BA |1B3 A  :|2B3 c |
de| f2 fe fa |ec A2 de |f2 fe (3fga |e4 de |
fd Be cA |dB Gc AE |F2 B2 Ac |1B3 c de:|2B3 A ||

